X:16
T:Kinnegad Slashers
M:6/8
L:1/8
R:Jig
B:WM Cahusac - Annual Collection of Twenty Four Favorite Country Dances for 1809, No. 15 (London)
N:"With proper Directions to each Dance as they are performed at
N:Court, Bath, and all Public Assemblies."
Z:Transcribed and edited by Flynn Titford-Mock, 2007
Z:abc's:AK/Fiddler's Companion
K:D
A|d>AF d>AF|ABA ABc|d>AF d>AF|Eee efg|d>AF d>AF|ABA A2g|fed c>BA|Add d2:|
|:dfa afd|efe e2f|dfa afd|fga afd|dfa afd|efe e2g|f>ede c>BA|Add d3:||
